X:973
T:Morgan Magan
T:Morgan MacGann
R:Other
C:Turlough Carolan
O:Ireland
B:The Complete Works of O'Carolan
S:The Complete Works of O'Carolan
S:Robinson
S:Mike Long
Z:Transcription, arrangement, chords:Mike Long
M:2/4
L:1/16
K:G
D2|\
"G"D2G2 G2A2|cBAG Bcd2|"Am/C"e2A2 A2G2|"D"GFEF D2EF|"G"G4 "D"GFGA|
"G"G2FE D2G2|"D"FGA2 "C"A2EG|"D"F2D2 D2EF|"G"G2B2 "D"AGAF|"G"G4 B4|
"C"c2A2 "Am"A2Bc|"D"d4 e4|"D"d2B2 "C"cBAG|\
"D"F2EF D2EF|"G"G2G2 "D"AGAF|"G"G6:|
|:dc|\
"G"B2d2 d2ef|g2G2 Bcd2|g2G2 Bcd2|"C"edcB "D"A3c|"G"BABc d2B2|
"C"e2c2 "G"d2B2|"C"c2A2 "G"d3G|"D"F2D2 D2GF|\
"C"E2C2 C3D|E2C2 C3E|"D"F2D2 D2AG|
FGEF D2Bc|"G"d2Bd "C"edcB|"C"cBAG "D"FGAF|"G"D2G2 "D"AGAF|"G"G6:|
